svg/emoji/sweats_line.svg

<?xml version="1.0" encoding="UTF-8"?>
<svg width="24px" height="24px" viewBox="0 0 24 24" version="1.1" xmlns="http://www.w3.org/2000/svg" xmlns:xlink="http://www.w3.org/1999/xlink">
    <title>sweats_line</title>
    <g id="Icon" stroke="none" stroke-width="1" fill="none" fill-rule="evenodd">
        <g id="Emoji" transform="translate(-816.000000, 0.000000)">
            <g id="sweats_line" transform="translate(816.000000, 0.000000)">
                <path d="M24,0 L24,24 L0,24 L0,0 L24,0 Z M12.5935,23.2578 L12.5819,23.2595 L12.5109,23.295 L12.4919,23.2987 L12.4767,23.295 L12.4057,23.2595 C12.3958,23.2564 12.387,23.259 12.3821,23.2649 L12.378,23.2758 L12.3609,23.7031 L12.3659,23.7235 L12.3769,23.7357 L12.4805,23.8097 L12.4953,23.8136 L12.5071,23.8097 L12.6107,23.7357 L12.6233,23.7197 L12.6267,23.7031 L12.6096,23.2758 C12.6076,23.2657 12.601,23.2593 12.5935,23.2578 Z M12.8584,23.1453 L12.8445,23.1473 L12.6598,23.2397 L12.6499,23.2499 L12.6472,23.2611 L12.6651,23.6906 L12.6699,23.7034 L12.6784,23.7105 L12.8793,23.8032 C12.8914,23.8069 12.9022,23.803 12.9078,23.7952 L12.9118,23.7812 L12.8777,23.1665 C12.8753,23.1546 12.8674,23.147 12.8584,23.1453 Z M12.143,23.1473 C12.1332,23.1424 12.1222,23.1453 12.1156,23.1526 L12.1099,23.1665 L12.0758,23.7812 C12.0751,23.7927 12.0828,23.8019 12.0926,23.8046 L12.1083,23.8032 L12.3092,23.7105 L12.3186,23.7024 L12.3225,23.6906 L12.3404,23.2611 L12.3372,23.2485 L12.3278,23.2397 L12.143,23.1473 Z" id="MingCute" fill-rule="nonzero"></path>
                <path d="M12,2 C14.173,2 16.1856,2.69404 17.826,3.87156 L18.0704904,3.55643184 L18.0704904,3.55643184 L18.1793,3.42252 L18.1793,3.42252 C18.6053,2.90707 19.3947,2.90706 19.8207,3.42251 L20.0662652,3.73041507 L20.0662652,3.73041507 L20.3410307,4.0974753 L20.3410307,4.0974753 L20.5513579,4.39527096 C20.5876302,4.44800818 20.6243931,4.50221076 20.6614688,4.55774832 L20.8862558,4.90595022 L20.8862558,4.90595022 L20.9988,5.09011 C21.4581,5.85716 22,6.95221 22,8 C22,8.4855 21.8776,8.96287 21.6553,9.38841 C21.8802,10.2219 22,11.0977 22,12 C22,17.5228 17.5228,22 12,22 C6.47715,22 2,17.5228 2,12 C2,6.47715 6.47715,2 12,2 Z M12,4 C7.58172,4 4,7.58172 4,12 C4,16.4183 7.58172,20 12,20 C16.4183,20 20,16.4183 20,12 C20,11.6123 19.9725,11.2314 19.9194,10.8591 C19.6344,10.9499 19.3265,11 19,11 C17.1796,11 16,9.48507 16,8 C16,7.38606 16.1839,6.7762 16.4033,6.254 C16.5042,6.01393 16.6184,5.77877 16.7385,5.55361 C15.412,4.57657 13.7742,4 12,4 Z M12,14 C12.5523,14 13,14.4477 13,15 C13,15.5523 12.5523,16 12,16 L9,16 C8.44772,16 8,15.5523 8,15 C8,14.4477 8.44772,14 9,14 L12,14 Z M9,10 C9.55228,10 10,10.4477 10,11 C10,11.5523 9.55228,12 9,12 L6,12 C5.44772,12 5,11.5523 5,11 C5,10.4477 5.44772,10 6,10 L9,10 Z M15,10 C15.5523,10 16,10.4477 16,11 C16,11.5523 15.5523,12 15,12 L12,12 C11.4477,12 11,11.5523 11,11 C11,10.4477 11.4477,10 12,10 L15,10 Z M19,5.67108 L18.8763,5.8604 L18.8763,5.8604 C18.6394,6.23117 18.4124,6.63548 18.2472,7.0287 C18.0775,7.43258 18,7.76188 18,8 C18,8.51493 18.414,9 19,9 C19.3409,9 19.6036,8.84876 19.7792,8.62333 C19.9239,8.43746 20,8.21095 20,8 C20,7.53806 19.7214,6.84987 19.2829,6.11762 C19.1893,5.9613 19.0936,5.8114 19,5.67108 Z" id="形状" fill="#09244B"></path>
            </g>
        </g>
    </g>
</svg>

<svg xmlns="http://www.w3.org/2000/svg" width="24" height="24"><g fill="none" fill-rule="evenodd"><path d="M24 0v24H0V0h24ZM12.594 23.258l-.012.002-.071.035-.02.004-.014-.004-.071-.036c-.01-.003-.019 0-.024.006l-.004.01-.017.428.005.02.01.013.104.074.015.004.012-.004.104-.074.012-.016.004-.017-.017-.427c-.002-.01-.009-.017-.016-.018Zm.264-.113-.014.002-.184.093-.01.01-.003.011.018.43.005.012.008.008.201.092c.012.004.023 0 .029-.008l.004-.014-.034-.614c-.003-.012-.01-.02-.02-.022Zm-.715.002a.023.023 0 0 0-.027.006l-.006.014-.034.614c0 .012.007.02.017.024l.015-.002.201-.093.01-.008.003-.011.018-.43-.003-.012-.01-.01-.184-.092Z"/><path fill="#09244B" d="M12 2c2.173 0 4.186.694 5.826 1.872l.244-.316.11-.133a1.064 1.064 0 0 1 1.64 0l.246.307.275.367.21.298c.037.053.073.107.11.163l.225.348.113.184C21.459 5.857 22 6.952 22 8c0 .486-.122.963-.345 1.388.225.834.345 1.71.345 2.612 0 5.523-4.477 10-10 10S2 17.523 2 12 6.477 2 12 2Zm0 2a8 8 0 1 0 7.92 6.86A3.02 3.02 0 0 1 19 11c-1.82 0-3-1.515-3-3 0-.614.184-1.224.403-1.746.101-.24.215-.475.335-.7A7.96 7.96 0 0 0 12 4Zm0 10a1 1 0 1 1 0 2H9a1 1 0 1 1 0-2h3Zm-3-4a1 1 0 1 1 0 2H6a1 1 0 1 1 0-2h3Zm6 0a1 1 0 1 1 0 2h-3a1 1 0 1 1 0-2h3Zm4-4.329-.124.19c-.237.37-.464.774-.629 1.168-.17.404-.247.733-.247.971 0 .515.414 1 1 1 .34 0 .604-.151.78-.377.144-.186.22-.412.22-.623 0-.462-.279-1.15-.717-1.882-.094-.157-.19-.307-.283-.447Z"/></g></svg>
